src/actions/22/object-rows.svg

<svg xmlns="http://www.w3.org/2000/svg" viewBox="0 0 22 22">
    <defs id="defs3051">
        <style id="current-color-scheme" type="text/css">
            .ColorScheme-Highlight{color:#a0b6cb}
        </style>
    </defs>
    <path d="M3 2v5h16V2H3zm1 1h14v3H4V3zM3 8v5h16V8H3zm1 1h14v3H4V9zm-1 5v5h16v-5H3zm1 1h14v3H4v-3z" style="fill:currentColor;fill-opacity:1;stroke:none;color:#050505;opacity:.7"/>
</svg>

<svg xmlns="http://www.w3.org/2000/svg" viewBox="0 0 22 22">
  <defs id="defs3051">
    <style type="text/css" id="current-color-scheme">
      .ColorScheme-Text {
        color:#363636;
      }
      .ColorScheme-Highlight {
        color:#3daee9;
      }
      </style>
  </defs>
 <path 
     style="fill:currentColor;fill-opacity:1;stroke:none" 
     d="M 3 2 L 3 7 L 19 7 L 19 2 L 3 2 z M 4 3 L 18 3 L 18 6 L 4 6 L 4 3 z M 3 8 L 3 13 L 19 13 L 19 8 L 3 8 z M 4 9 L 18 9 L 18 12 L 4 12 L 4 9 z M 3 14 L 3 19 L 19 19 L 19 14 L 3 14 z M 4 15 L 18 15 L 18 18 L 4 18 L 4 15 z "
     class="ColorScheme-Text"
     />
</svg>
